icons/bhi_tools.svg

<svg xmlns="http://www.w3.org/2000/svg" viewBox="0 0 512 512" enable-background="new 0 0 512 512"><path fill="#010101" d="M7 450.3l54.7 54.7c8.1 9.3 23.3 9.3 32.6 0l213-213c53.5 21 117.6 9.3 160.6-33.8 46.5-46.5 55.8-116.3 29.1-172.2l-101.3 101.3-71-71 101.3-101.3c-55.9-26.8-125.7-17.4-172.3 29.1-43 43.1-54.7 107.1-33.7 160.6l-213 213c-9.3 9.3-9.3 24.5 0 32.6z"/></svg>

<?xml version="1.0" encoding="utf-8"?>
<!-- Generator: Adobe Illustrator 19.2.0, SVG Export Plug-In . SVG Version: 6.00 Build 0)  -->
<svg version="1.1" id="Layer_1" xmlns="http://www.w3.org/2000/svg" xmlns:xlink="http://www.w3.org/1999/xlink" x="0px" y="0px"
	 viewBox="0 0 512 512" enable-background="new 0 0 512 512" xml:space="preserve">
<path fill="#010101" d="M7,450.3L61.7,505c8.1,9.3,23.3,9.3,32.6,0l213-213c53.5,21,117.6,9.3,160.6-33.8
	C514.4,211.7,523.7,141.9,497,86L395.7,187.3l-71-71L426,15C370.1-11.8,300.3-2.4,253.7,44.1C210.7,87.2,199,151.2,220,204.7
	L7,417.7C-2.3,427-2.3,442.2,7,450.3z"/>
</svg>
